X:1
T:Tanti auguri
T:Tanti auguri
T:Alberto
C:Alberti
%%score { ( 1 3 5 6 ) | ( 2 4 7 ) }
L:1/8
Q:1/4=114
M:3/4
K:D
V:1 treble nm="Piano" snm="Pno."
V:3 treble 
V:5 treble 
V:6 treble 
V:2 bass 
V:4 bass 
V:7 bass 
V:1
!p!"^Moderato" (f2- | fgfcdB | ^A4) (!>!f2- | fgfced |!<(! B4) z2!<)! | z6 | %6
!f! z6[Q:3/4=40][Q:3/4=43][Q:3/4=47] | z2[Q:3/4=50] z2!8va(! [ff']>[ff'] | [gg']2 [ff']2 [bb']2 | %9
 [^a^a']6 || %10
[K:B]"_legatissimo"[Q:3/4=55][Q:1/4=187]"^Presto"!<(! (e''/c''/a'/f'/a'/c''/e''/c''/a'/f'/a'/c''/ | %11
 e''/c''/a'/f'/a'/c''/e''/c''/a'/f'/a'/!ff!c''/!<)! | x2 x x/[Q:1/8=120] !fermata!e''2) || %13
[Q:3/4=40]"_accel," [ff']>[ff'] |[Q:3/4=43] [gg']2 [ff']2[Q:3/4=48] [c'c'']2 |[Q:3/4=50] [bb']6 | %16
!p![Q:3/4=60] x2 x4 | x6 | x6!8va)! || %19
[M:4/4]!f![Q:1/4=114]"^Moderato" (!>![Ff]2 [F,F]2) (!>![Aa]2 [A,A]2) | %20
 (!>![cc']2 [Cc]2) [C^EGB]/4 !>![CEGB]4 | %21
"_rit."[Q:3/4=40]!<(! (!>!BG[Q:3/4=35]^EC[I:staff +1]B,[Q:3/4=30]G,^E,C,)!<)! || %22
[K:A][M:2/2][I:staff -1][K:bass]!ff!"_violento e tragico"[Q:1/4=187]"^Presto" (3[F,A,]C[F,A,] (3C[F,A,]C (3[F,A,]C[F,A,] (3C[F,A,]C | %23
!>(! (3[F,A,]C[F,A,] (3C[F,A,]C (3[F,A,]C[F,A,] (3C!>)!!p![F,A,]C | %24
"_rit."!<(! (3[F,A,]C[F,A,] (3C[F,A,]C (3[F,A,]C[F,A,] (3C[F,A,]C | %25
 (3[F,A,]C[F,A,] (3C[F,A,]C!<)! |!ff! (3[^E,B,]C[E,B,] (3C[E,B,]C (3[E,B,]C[E,B,] (3C[E,B,]C | %27
 (3[^E,B,]C[E,B,] (3C[E,B,]C (3[E,B,]C[E,B,] (3C!p![E,B,]C | %28
 (3[^E,B,]C[E,B,] (3C[E,B,]C (3[E,B,]C[E,B,] (3C[E,B,]C | %29
[K:A]"_rit."[Q:3/4=60]!<(! (3[^E,B,]C[E,B,] (3C[Q:3/4=55][E,B,]C (3[E,B,]C[E,B,][Q:3/4=50] (3C[E,B,]C!<)! || %30
[K:F#][K:treble][Q:1/4=144]"^Allegro" f4 |!8va(! z4{c''} !trill(!Tc''4 |{c'} c'4{c} (c4!8va)! | %33
 !trill)!c8) x/8 x/8 |"_rit."!>(! (BA c6){B}!>)! |!p! B8 || %36
[K:B][M:3/4][Q:1/4=116]"^Allegretto"!<(! F4 | dedcde | !>!g4 f2 | (dedcde | !>!g4) f2 | %41
 f2!<)!!ff!!8va(! ([d'd'']>[d'd''] [d'd'']2) | [c'c'']2 ([ee']>[ee'] [ee']2) | %43
 [dd']2 ([bb']>[bb'] [bb']2) |!fff! [aa']2 [gg']2 [aa']2 [gg']2!8va)! || %45
[K:A]"^Cadenza" !arpeggio![FA=c_e]6 |"_1 C,"!8va(! a'/f'/^d'/=c'/d'/f'/a'/f'/d'/c'/d'/f'/a'/ | %47
 f'/^d'/=c'/a/c'/d'/f'/_e'/c'/a/c'/d'/f'/ | ^d'/=c'/a/f/a/c'/d'/c'/a/f/a/c'/d'/ | %49
 =c'/a/f/^d/f/a/c'/a/f/_e/f/a/c'/ |!p! a/f/^d/=c/d/f/a/f/d/c/d/f/a/ | x4 x2 !fermata!x/!8va)! || %52
[K:B][M:6/4] =d2 |[Q:1/4=172]"^Vivace" !>!d6 !>!d6 | !>!d6- d4 !>!d2 | !>!d4 !>!d2 (!>!e4 !>!d2) | %56
 (!>!d6 !>!G2) z2 !>!G2 | (!>!G2 !>!A2 !>!B2) (!>!d4 !>!c2) | (!>!c2 !>!B2 !>!G2 !>!F2) z2 z !>!F | %59
"_cresc."!<(! !>!d6 !>!d6 | !>!d6- !>!d4 !>!^d2 | (.^d4 .=e2) (.d4 .e2) | %62
 !^!=f6- !>!f4!<)!!f! [=A,=A]2 | [=A,=A]2 [B,B]2 [=C=c]2 !arpeggio![Ee]4 [=D=d]2 | [=C,=C]4 | %65
[K:Bb][M:6/4][I:staff +1] C,/=E,/G,/E,/ G,/C/G,/[I:staff -1]C/ =E/C/E/G/ E/G/c/G/ c/=e/c/e/ g/e/g/c'/ | %66
 g/c'/=e'/c'/ e'/!8va(!g'/e'/g'/ c''/g'/c''/=e''/ c''/e''/g''/e''/ g''/ ^b''4!8va)! | %67
[I:staff +1] C,2 D,4 | %68
 ^^C,/^F,/^^G,/F,/ G,/^^C/G,/[I:staff -1]C/ ^F/C/F/^^G/ F/G/^^c/G/ c/^f/c/f/ ^^g/f/g/^^c'/ | %69
 ^^g/^^c'/^f'/c'/ f'/!8va(!^^g'/f'/g'/ ^^c''/g'/c''/^f''/ c''/f''/^^g''/f''/ g''/!8va)! d4 | %70
!pp![Q:1/4=114]"^Moderato"[I:staff +1] D,6[I:staff -1] z Cx^FBA | G6 (d6 | c6) z (Cx^FBA | %73
 G6) (!>!=E6 | ^F6) z CxFBA |!<(! G6 (d6!<)! |!f! =e6)z!p!(x^C=EAG |"_Accel."!<(! G6) (=e6!<)! | %78
[Q:1/4=116]"^Allegretto" ^f6 =e4) z f |[Q:1/4=144]"^Allegro" (^f6 =e4) z f | (^f6 =e4) z f | %81
[Q:1/4=172]"^Vivace" (!>!a6 g4 a2 | %82
"_accel." [Bdb]2) z[Q:1/4=144]"^Allegro"!8va(! .[d'b'].[e'c''].[d'b'] .[c'a'].[bg'].[a^f'].[bg'].[a=f']x/.[ge']/!8va)! | %83
 .[ge'].[^fd'].[ec'].[db].[ca].[Bg]"_Rit,"[Q:3/4=50] (3.[A^f].[ce].[cd][Q:3/4=40] (5:4:5.[=Bd]/.[_Bd]/.[Ad]/.[^Gd]/[Q:3/4=20].[Ad]/ .[Bd]/.[Ad]/.[cd]/.[Bd]/ || %84
[M:2/2][Q:1/4=187]"^Presto con fuoco"[Q:3/4=100] .[Gd] z!mp!!8va(! (!>![d'g'b']a) z [bd'g'](!>![bd'g']^f)!8va)! | %85
 z [gbd'](!>![gbd']^c) z [dgb](!>![dgb]B) | z [egc'](!>![egc']d ^c=c!>![egc']d | %87
 ^c=c!>![e^fc']d ^c=c!>![dfa]c) | .[Bdgb]2!8va(! (!>![d'g'b']a) z [bd'g'](!>![bd'g']^f)!8va)! | %89
 z [gbd'](!>![gbd']^c) z [dgb](!>![dgb]B) | z [egc'](!>![egc']d ^c=c!>![egc']d | %91
 ^c=c!>![e^fc']d ^c=c!>![dfa]c) | .[Bdgb]2!mf! _a2 a!>![ea]Ge | ^F[=A^f]f[=a^f'] g[bg']g[Bg] | %94
 !>!_A[e_a]a[e'_a'] a[ea]!>!G[eg] | ^F[=A^f]f[a^f'] g[bg']g[Bg] | %96
 (!>!=F[_A=f]f[_a=f'] f[Ae]!>!E[Ae] | !>!D[_Ad]d[_ad'] d[Ac]!>!C[Ac]) | %98
 (C[Ec]c[ec'] !>!c[ec'] !>!B[db] | !>!B[db]A[ca] G[Bg]^F[A^f]) | .[GBg]2 _a2 a!>![ea]Ge | %101
 ^F[=A^f]f[=a^f'] g[bg']g[Bg] | !>!_A[e_a]a[e'_a'] a[ea]!>!G[eg] | ^F[=A^f]f[a^f'] g[bg']g[Bg] | %104
 =F[_A=f]f[_a=f'] f[Ae]E[Ae] | D[^Fd]d[^fd'] d[=E^c]^C[Ec] |!<(! =C[_E=c]c[ec'] =B[e=b]c[ec'] | %107
 c[ec']e[_g_e'] d[gd']e[ge'] | e[_ge'](g[b_g'] f[^gf']^f[=a^f'] | %109
 ^f[Af])!8va(!(a[c'a'] b[d'b']c'[e'c''])!<)! |!ff! (!>!c'[e'c'']b[d'b'] (!>!b[d'b']a[c'a']) | %111
 !>!a[c'a']g[bg'] !>!g[bg']d[^fd']) | z ((b[d'b']b) (!>![_d'b']b)(!>![c'a']a) | %113
 (!>![c'a']a)(!>![bg']g) (!>![bg']g)(!>![^fd']d))!8va)! | %114
 z!8va(! d'!>![g'b'd'']d'!8va)! x2 (!>![gbd']d) | x2 (!>![GBd]D) x2[I:staff +1] (!>![G,B,D]D,) | %116
[I:staff -1] x2[I:staff +1] (!>![G,B,=E]D,)[I:staff -1] x2[I:staff +1] (!>![G,B,E]D,) | %117
[I:staff -1] x2[I:staff +1] (!>![G,B,=E]D,)[I:staff -1] x2[I:staff +1] (!>![G,B,E]D,) | %118
[I:staff -1] z8 |[Q:1/4=50]"^Largo" !fermata![d^fad'^f'a'd'']8 |] %120
V:2
 z2 |!ped! B,,2 [F,B,D]2 [F,B,D]2!ped-up! |!ped! C,2 [F,CE]2 [F,CE]2!ped-up! | %3
!ped! ^A,,2 [F,CE]2 [F,^A,E]2!ped-up! |!ped! B,,2 [F,B,D]2 [F,B,D]2!ped-up! | %5
!ped! [F,,,F,,]2 [F,^A,CE]2 [F,A,CE]2!ped-up! | %6
"_ten."!f!!sfz!!ped! [B,,,,B,,,]2 (3(!>!B,F,D(3B,F,D | (3B,F,D(3B,F,D(3B,F,D | %8
 (3B,F,D(3B,F,D(3B,F,D)!ped-up! | [F,,,F,,]6 || %10
[K:B][K:treble]!ped! (e'/c'/a/f/a/c'/e'/c'/a/f/a/c'/ | e'/c'/a/f/a/c'/e'/c'/a/f/a/c'/ | %12
 f/a/c'/e'/)!8va(![I:staff -1]f'/a'/c''/[I:staff +1] z2!ped-up!!8va)! ||[K:bass]!ped! [F,,,F,,]2 | %14
 [F,,A,,C,E,]2 [F,A,CE]2[K:treble] [FAce]2 |[K:bass] [B,,,,B,,,]6!ped-up! | %16
[K:treble]"_legatissimo""^1 C,"!ped! (B/d/f/!8va(![I:staff -1]b/d'/f'/b'/f'/d'/!8va)![I:staff +1]b/f/d/ | %17
 B/d/f/!8va(![I:staff -1]b/d'/f'/b'/f'/d'/!8va)![I:staff +1]b/f/d/ | B6)!ped-up! || %19
[M:4/4][K:bass]"^3 C,"!ped! (!>![F,F]2 [F,,F,]2)[K:treble] (!>![A,A]2[K:bass] [A,,A,]2)!ped-up! | %20
[K:treble]!ped! (!>![Cc]2[K:bass] [C,,C,]2) [C,^E,G,B,]/4 !>![C,E,G,B,]4!ped-up! | %21
 !>!B,G,^E,C,B,,G,,^E,,C,, ||[K:A][M:2/2] !>!F,,,4 .A,,,2 .C,,2 | .F,,2 z2 z2[K:treble] (c>c | %24
 d4 c4 | f4) | !>!G,,,4 .B,,,2 .^E,,2 |!>(! .G,,2 z2 z2[K:treble] (c>c!>)! | d4 c4 |[K:A] g8) || %30
[K:F#][K:bass]!ped! [F,,,F,,]4!ped-up! |!ped! !//-![F,A,C]4 =E4!ped-up! | %32
!ped! !//-![F,A,C]4 =E4!ped-up! |!ped! [F,A,C^^D]/4 [F,A,CD]8!ped-up! |!ped! z8!ped-up! | %35
!ped! [B,,,,B,,,]2 (D,B,,) (F,D,) !fermata!B,2!ped-up! ||[K:B][M:3/4] z4 | %37
!ped! B,,2 [F,B,D]2 [F,B,D]2!ped-up! |!ped! F,,2 [F,CE]2 [F,CE]2!ped-up! | %39
!ped! B,,2 [F,B,D]2 [F,B,D]2!ped-up! |!ped! F,,2 [F,CE]2 [F,CE]2!ped-up! | %41
!ped! B,,2 [F,B,D]2 [F,B,D]2!ped-up! |!ped! [F,,,F,,]2 [F,A,CE]2 [F,A,CE]2!ped-up! | %43
!ped! [B,,,B,,]2 [F,B,D]2 [F,B,D]2!ped-up! | %44
!ped! [F,,,F,,]2 [F,A,CE]2[K:treble] [FAce]2[K:bass] [F,A,CE]2!ped-up! || %45
[K:A]!ped! [F,A,=C_E]6!ped-up! | %46
[K:treble]!p!!ped!!8va(![I:staff -1] ^d'/^b/a/f/a/b/d'/b/a/f/a/b/d'/!ped-up! | %47
!ped! =c'/a/f/_e/f/a/c'/a/f/e/f/a/c'/!ped-up! |!ped! a/f/_e/=c/e/f/a/f/e/c/e/f/a/!ped-up! | %49
!ped! f/_e/=c/A/c/e/f/e/c/A/c/e/f/!ped-up! |!ped! _e/=c/A/F/A/c/e/c/A/F/A/c/e/!8va)!!ped-up! | %51
!ped![I:staff +1] =C/^D/F/A/!8va(![I:staff -1]=c/^d/f/a/[I:staff +1]=c'/_e'/f'/a'/[I:staff -1]!fermata!=c''/!ped-up!!8va)! || %52
[K:B][M:6/4][I:staff +1] z2 |[K:bass]!ped! z (F,B,DB,F,) z (F,B,DB,F,)!ped-up! | %54
!ped! z (^^F,CDCF,) z (F,CDCF,)!ped-up! |!ped! z (^F,CDCF,) z (F,^B,DB,F,)!ped-up! | %56
!ped! z (^E,=B,DB,E,) z (C,E,B,E,C,)!ped-up! |!ped! z (=E,F,CF,E,) z (F,A,EA,F,) | %58
 z (B,,F,B,^E,B,)(F,D^CB,G,F,)!ped-up! |!ped! z F,B,DB,F, z ^^F,CDCF,!ped-up! | %60
!ped! z ^F,^B,DB,F, z F,=C_ECF,!ped-up! |!ped! z =G,=C=ECG, z G,CECG,!ped-up! | %62
!ped! z =A,[=C=D]=F[CD]A, z6!ped-up! | %63
!ped! z =G,,[=D,=F,]=A,[D,F,]G,, !arpeggio!.[G,,F,B,]2!ped-up!!ped! z2 z2 | [=C,,,=C,,]4!ped-up! | %65
[K:Bb][M:6/4] C,,/=E,,/G,,/E,,/ G,,/C,/G,,/C,/ =E,/C,/E,/G,/ E,/G,/C/[I:staff -1]G,/ C/=E/C/E/ G/E/G/c/ | %66
 G/c/=e/c/ e/!8va(!g/e/g/ c'/g/c'/=e'/ c'/e'/g'/e'/ g'/ c''4!8va)! | %67
[I:staff +1] [C,,,C,,]2 [D,,,^^C,,]4 | %68
 ^^C,,/^F,,/^^G,,/F,,/ G,,/^^C,/G,,/C,/ ^F,/C,/F,/^^G,/ F,/G,/^^C/[I:staff -1]G,/ C/^F/C/F/ ^^G/F/G/^^c/ | %69
 ^^G/^^c/^f/c/ f/!8va(!^^g/f/g/ ^^c'/g/c'/^f'/ c'/f'/^^g'/f'/ g'/!8va)! c'4 | %70
!ped![I:staff +1] z2 (.D,,2 .D,,2) z2 (.D,,2 .D,,2)!ped-up! |!ped! z2 (.D,,2 .D,,2) (D6!ped-up! | %72
!ped! C6)!ped-up!!ped! z2 (.D,,2 .D,,2)!ped-up! | %73
!ped! z2 (.D,,2 .D,,2)!ped-up!!ped! z2 (.D,,2 .D,,2)!ped-up! | %74
!ped! z2 (.D,,2 .D,,2) z2 (.D,,2 .D,,2)!ped-up! |!ped! z2 (.D,,2 .D,,2) (D6 | %76
 =E6)!ped-up!!ped! x6!ped-up! |!ped! z6 (=E6!ped-up! |!ped! ^F6!ped-up!!ped! =E4) z F!ped-up! | %79
!ped! (^F6!ped-up!!ped! =E4) z F!ped-up! |!ped! (^F6!ped-up!!ped! =E4) z F!ped-up! | %81
!ped! (A6!ped-up!!ped! G4)[I:staff -1] A2!ped-up! | %82
!ped![I:staff +1] [D,,,D,,]2 ([D,B,]2 [G,D]2 [B,G]2 [G,D]2 [D,B,]2)!ped-up! | %83
!ped! [D,,,D,,]2 [D,^F,C]2 [F,CD]2 [C^F]2 [F,CD]2 [D,F,C]2!ped-up! || %84
[M:2/2]!ped! [G,,,G,,]2 z2 [B,DG]2 .B,,2!ped-up! | %85
!ped! [B,DG]2 .D,2!ped-up!!ped! [B,DG]2 .G,2!ped-up! |!ped! [A,CG]2 .A,,2!ped-up! [CEG]2 .A,2 | %87
 [CD^F]2 .D,2 [CDF]2 .A,2 |!ped! [G,DG]2 .G,,2 [B,DG]2 .B,,2!ped-up! | %89
!ped! [B,DG]2 .D,2!ped-up!!ped! [B,DG]2 .G,2!ped-up! |!ped! [A,CG]2 .A,,2!ped-up! [CEG]2 .A,2 | %91
 [CD^F]2 .D,2 [CDF]2 .A,2 | .[G,DG]2!ped! (!>!C,6!ped-up! | %93
!ped! .D,2) [=A,CD]2!ped-up!!ped! .G,,2 [G,B,D]2!ped-up! |!ped! z2 (!>![_A,E]4 [A,E]2)!ped-up! | %95
!ped! .D,2 [=A,CD]2!ped-up!!ped! .G,,2 [G,B,D]2!ped-up! |!ped! (=B,,4!ped-up!!ped! C,4!ped-up! | %97
 D,4 E,4 |!ped! ^F,,2) ([^F,CE]2!ped-up! [G,B,D]2) .G,,2 |!ped! .C,2 [A,EG]2 (D,4 | %100
 .G,2)!ped! (!>!C,6!ped-up! |!ped! .D,2) [=A,CD]2!ped-up!!ped! .G,,2 [G,B,D]2!ped-up! | %102
!ped! z2 !>![_A,E]6!ped-up! |!ped! .D,2 [=A,CD]2!ped-up!!ped! G,,2 [G,B,D]2!ped-up! | %104
!ped! .[=B,,,=B,,]2 [F,_A,D]2!ped-up!!ped! .[C,,C,]2 [E,G,C]2!ped-up! | %105
!ped! .[D,,D,]2 [^F,=A,]2!ped-up!!ped! .[=E,,=E,]2 [G,_B,]2!ped-up! | %106
!ped! .[^F,,^F,]2 [F,CE]2 [G,CE]2!ped-up! .[G,,G,]2 | %107
!ped! .[_A,,_A,]2 [A,E_G]2 [=A,EG]2!ped-up! .[=A,,A,]2 | %108
!ped! .[B,,B,]2 [B,E_G]2 [=B,^D=A]2!ped-up! .[=B,,B,]2 | %109
!ped! .[C,C]2 (!>![C=D^FA]4 [CDFA]2)!ped-up! | %110
!ped! .[B,,B,]2 [G,DG]2!ped-up!!ped! .[C,C]2 [A,EG]2!ped-up! | %111
!ped! .[D,D]2 !>![DGB]2!ped-up!!ped! .[C,C]2 [CD^FA]2!ped-up! | %112
!ped! .[B,,B,]2 [G,DG]2!ped-up!!ped! .[C,C]2 [A,EG]2!ped-up! | %113
!ped! .[D,D]2 !>![DGB]2!ped-up!!ped! .[C,C]2 [CD^FA]2!ped-up! | %114
!ped! .[B,,B,]2 z2[I:staff -1] (!>![gbd']d)[I:staff +1] x2 | %115
[I:staff -1] (!>![GBd]D)[I:staff +1] x2 (!>![G,B,D]D,) x2!ped-up! | %116
 ([^F,,,^F,,][G,,,G,,]) x2 ([^C,,^C,][D,,D,]) x2 | %117
 ([^F,,,^F,,][G,,,G,,]) x2 ([^C,,^C,][D,,D,]) x2 | !>![D,,,D,,]8 | z8 |] %120
V:3
 x2 | x6 | x6 | x6 | x6 | x6 | x6 | x4!8va(! x2 | x6 | x6 ||[K:B] x6 | x6 | x11/2 || x2 | x6 | x6 | %16
 x6 | x6 | x6!8va)! ||[M:4/4] x8 | x33/4 | x8 ||[K:A][M:2/2][K:bass] x8 | x8 | x8 | x4 | x8 | x8 | %28
 x8 |[K:A] x8 ||[K:F#][K:treble] x4 |!8va(! x8 | x8!8va)! | x33/4 | x8 | x8 ||[K:B][M:3/4] x4 | %37
 x6 | x6 | x6 | x6 | x2!8va(! x4 | x6 | x6 | x8!8va)! ||[K:A] x6 |!8va(! x13/2 | x13/2 | x13/2 | %49
 x13/2 | x13/2 | x13/2!8va)! ||[K:B][M:6/4] x2 | z (DFBFD) z (DFBFD) | z (D^^FcFD) z (DFcFD) | %55
 z (D^FcFD) z (DF^BFD) | z (D^E=BED) z (B,CECB,) | z (C=EFEC) z (EFAFE) | z DFDG^^CD x5 | %59
 z DFBFD z D^^FcFD | z D^F^BFD z _E^F=cF_E | z =E=G=cGE z EGcGE | z =F=A=cAF x6 | x12 | x4 | %65
[K:Bb][M:6/4] x12 | x5/2!8va(! x10!8va)! | x6 | x12 | x5/2!8va(! x6!8va)! x4 | x7 C- C4 | %71
 x2 (.[B,D]2 .[B,D]2) x2 (.G2 .G2) | x2 (.[DG]2 .[DG]2) x C- C4 | %73
 x2 (.[B,D]2 .[B,D]2) x2 (.[G,B,^C]2 .[G,B,C]2) | x2 (.[^F,A,D]2 .[F,A,D]2) x C- C4 | %75
 z2 (.[B,D]2 .[B,D]2) z2 (.[GB]2 .[GB]2) | z2 (.[GB]2 .[GB]2) x B,4 x | %77
 z2 (.[B,^C=E]2 .[B,CE]2) z2 (.[GB^c]2 .[GBc]2) | z2 (.[GB^c]2 .[GBc]2) z2 [GBc]2 z2 | %79
 z2 (.[GB^c]2 .[GBc]2) z2 [GBc]2 z2 | z2 [GB^c]2 [GBc]2 z2 [GBc]2 z2 | %81
 z2 [B^c=e]2 [Bce]2 z2 [Bce]2 z2 | x3!8va(! x9!8va)! | x12 ||[M:2/2] x2!8va(! x6!8va)! | x8 | x8 | %87
 x8 | x2!8va(! x6!8va)! | x8 | x8 | x8 | x2 !^!_a[e'_a'] x a2 g | ^F2 x2 g2 x2 | x8 | %95
 ^F2 x2 g2 x2 | x8 | x8 | x8 | x8 | x2 !^!_a[e'_a'] x a2 g | ^F2 x2 g2 x2 | x8 | ^F2 x2 g2 x2 | %104
 x8 | x8 | x8 | x8 | x8 | x2!8va(! x6 | x8 | x8 | x8 | x8!8va)! | x!8va(! x3!8va)! x4 | x8 | x8 | %117
 x8 | x8 | x8 |] %120
V:4
 x2 | x6 | x6 | x6 | x6 | x6 | x6 | x6 | x6 | x6 ||[K:B][K:treble] x6 | x6 | x2!8va(! x7/2!8va)! || %13
[K:bass] x2 | x4[K:treble] x2 |[K:bass] x6 |[K:treble] x3/2!8va(! x3!8va)! x3/2 | %17
 x3/2!8va(! x3!8va)! x3/2 | x6 ||[M:4/4][K:bass] x4[K:treble] x2[K:bass] x2 | %20
[K:treble] x2[K:bass] x25/4 | x8 ||[K:A][M:2/2] x8 | x6[K:treble] x2 | x8 | x4 | x8 | %27
 x6[K:treble] x2 | x8 |[K:A] x8 ||[K:F#][K:bass] x4 | x8 | x8 | x33/4 | x8 | x8 ||[K:B][M:3/4] x4 | %37
 x6 | x6 | x6 | x6 | x6 | x6 | x6 | x4[K:treble] x2[K:bass] x2 ||[K:A] x6 |[K:treble]!8va(! x13/2 | %47
 x13/2 | x13/2 | x13/2 | x13/2!8va)! | x2!8va(! x9/2!8va)! ||[K:B][M:6/4] x2 |[K:bass] B,,2 x10 | %54
 A,,2 x10 | =A,,2 x4 G,,2 x4 | C,,2 x10 | F,,2 x10 | x12 | B,,2 x4 A,,2 x4 | =A,,2 x4 _A,,2 x4 | %61
 =G,,2 x10 | =G,,2 x10 | x12 | x4 |[K:Bb][M:6/4] x12 | x5/2!8va(! x10!8va)! | x6 | x12 | %69
 x5/2!8va(! x6!8va)! x4 | x12 | x6 z2 (.[D,G,]2 .[D,G,]2) | z2 (.[D,G,]2 .[D,G,]2) x6 | x12 | x12 | %75
 x6 z2 (.[D,G,B,]2 .[D,G,B,]2) | z2 (.[D,G,B,]2 .[D,G,B,]2) z2 (.D,,2 .D,,2) | %77
 z2 (.D,,2 .D,,2) z2 (.[D,G,B,]2 .[D,G,B,]2) | z2 (.[D,G,B,]2 .[D,G,B,]2) z2 [D,G,B,]2 z2 | %79
 z2 (.[D,G,B,]2 .[D,G,B,]2) z2 [D,G,B,]2 z2 | z2 [D,G,B,]2 [D,G,B,]2 z2 [D,G,B,]2 z2 | %81
 z2 [B,^C=E]2 [B,CE]2 z2 [B,CE]2 z2 | x12 | x12 ||[M:2/2] x8 | x8 | x8 | x8 | x8 | x8 | x8 | x8 | %92
 x6 [_A,E]2 | x8 | C,8 | x8 | x8 | x8 | x8 | x8 | x8 | x8 | C,4 D,2 E,2 | x8 | x8 | x8 | x8 | x8 | %108
 x8 | x8 | x8 | x8 | x8 | x8 | x8 | x8 | x8 | x8 | x8 | x8 |] %120
V:5
 x2 | x6 | x6 | x6 | x6 | x6 | x6 | x4!8va(! x2 | x6 | x6 ||[K:B] x6 | x6 | x11/2 || x2 | x6 | x6 | %16
 x6 | x6 | x6!8va)! ||[M:4/4] x8 | x33/4 | x8 ||[K:A][M:2/2][K:bass] x8 | x8 | x8 | x4 | x8 | x8 | %28
 x8 |[K:A] x8 ||[K:F#][K:treble] x4 |!8va(! x8 | x8!8va)! | x33/4 | x8 | x8 ||[K:B][M:3/4] x4 | %37
 x6 | x6 | x6 | x6 | x2!8va(! x4 | x6 | x6 | x8!8va)! ||[K:A] x6 |!8va(! x13/2 | x13/2 | x13/2 | %49
 x13/2 | x13/2 | x13/2!8va)! ||[K:B][M:6/4] x2 | x12 | x12 | x12 | x12 | x12 | x12 | x12 | x12 | %61
 x12 | x12 | x12 | x4 |[K:Bb][M:6/4] x12 | x5/2!8va(! x10!8va)! | x6 | x12 | %69
 x5/2!8va(! x6!8va)! x4 | x7 x x x3 | x12 | x x x x x x x x x x3 | x12 | x7 x x x3 | x12 | x12 | %77
 x12 | x12 | x12 | x12 | x12 | x3!8va(! x9!8va)! | x12 ||[M:2/2] x2!8va(! x6!8va)! | x8 | x8 | x8 | %88
 x2!8va(! x6!8va)! | x8 | x8 | x8 | x8 | x8 | _A2 _a2 x2 G2 | x8 | =F2 x4 E2 | D2 d2 x2 C2 | %98
 x2 c2 c2 B2 | B2 A2 G2 ^F2 | x8 | x8 | _A2 _a2 x2 G2 | x8 | =F2 x4 E2 | D2 x4 ^C2 | %106
 =C x c2 =B2 c2 | c2 e2 d2 e2 | e2 _g2 f2 ^f2 | ^f2!8va(! a2 b2 c'2 | c'2 b2 b2 a2 | a2 g2 g2 d2 | %112
 x8 | x8!8va)! | x!8va(! x3!8va)! x4 | x8 | x8 | x8 | x8 | x8 |] %120
V:6
 x2 | x6 | x6 | x6 | x6 | x6 | x6 | x4!8va(! x2 | x6 | x6 ||[K:B] x6 | x6 | x11/2 || x2 | x6 | x6 | %16
 x6 | x6 | x6!8va)! ||[M:4/4] x8 | x33/4 | x8 ||[K:A][M:2/2][K:bass] x8 | x8 | x8 | x4 | x8 | x8 | %28
 x8 |[K:A] x8 ||[K:F#][K:treble] x4 |!8va(! x8 | x8!8va)! | x33/4 | x8 | x8 ||[K:B][M:3/4] x4 | %37
 x6 | x6 | x6 | x6 | x2!8va(! x4 | x6 | x6 | x8!8va)! ||[K:A] x6 |!8va(! x13/2 | x13/2 | x13/2 | %49
 x13/2 | x13/2 | x13/2!8va)! ||[K:B][M:6/4] x2 | x12 | x12 | x12 | x12 | x12 | x12 | x12 | x12 | %61
 x12 | x12 | x12 | x4 |[K:Bb][M:6/4] x12 | x5/2!8va(! x10!8va)! | x6 | x12 | %69
 x5/2!8va(! x6!8va)! x4 | x8 !stemless!D4 | x12 | x8 !stemless!D4 | x12 | x8 !stemless!D4 | x12 | %76
 z x z x z x z x x3 x | x12 | x12 | x12 | x12 | x12 | x3!8va(! x9!8va)! | x12 || %84
[M:2/2] x2!8va(! x6!8va)! | x8 | x8 | x8 | x2!8va(! x6!8va)! | x8 | x8 | x8 | x8 | x8 | x8 | x8 | %96
 x8 | x8 | x8 | x8 | x8 | x8 | x8 | x8 | x8 | x8 | x8 | x8 | x8 | x2!8va(! x6 | x8 | x8 | x8 | %113
 x8!8va)! | x!8va(! x3!8va)! x4 | x8 | x8 | x8 | x8 | x8 |] %120
V:7
 x2 | x6 | x6 | x6 | x6 | x6 | x6 | x6 | x6 | x6 ||[K:B][K:treble] x6 | x6 | x2!8va(! x7/2!8va)! || %13
[K:bass] x2 | x4[K:treble] x2 |[K:bass] x6 |[K:treble] x3/2!8va(! x3!8va)! x3/2 | %17
 x3/2!8va(! x3!8va)! x3/2 | x6 ||[M:4/4][K:bass] x4[K:treble] x2[K:bass] x2 | %20
[K:treble] x2[K:bass] x25/4 | x8 ||[K:A][M:2/2] x8 | x6[K:treble] x2 | x8 | x4 | x8 | %27
 x6[K:treble] x2 | x8 |[K:A] x8 ||[K:F#][K:bass] x4 | x8 | x8 | x33/4 | x8 | x8 ||[K:B][M:3/4] x4 | %37
 x6 | x6 | x6 | x6 | x6 | x6 | x6 | x4[K:treble] x2[K:bass] x2 ||[K:A] x6 |[K:treble]!8va(! x13/2 | %47
 x13/2 | x13/2 | x13/2 | x13/2!8va)! | x2!8va(! x9/2!8va)! ||[K:B][M:6/4] x2 |[K:bass] x12 | x12 | %55
 x12 | x12 | x12 | x12 | x12 | x12 | x12 | x12 | x12 | x4 |[K:Bb][M:6/4] x12 | %66
 x5/2!8va(! x10!8va)! | x6 | x12 | x5/2!8va(! x6!8va)! x4 | x12 | x12 | x12 | x12 | x12 | x12 | %76
 x12 | x12 | x12 | x12 | x12 | x12 | x12 | x12 ||[M:2/2] x8 | x8 | x8 | x8 | x8 | x8 | x8 | x8 | %92
 x8 | x8 | x8 | x8 | x2 [F,_A,D]2 x2 [E,A,C]2 | x2 [F,_A,=B,]2 x2 A,2 | x8 | x6 [A,D]2 | %100
 [B,D]2 x4 [_A,E]2 | x8 | x8 | x8 | x8 | x8 | x8 | x8 | x8 | x8 | x8 | x8 | x8 | x8 | x8 | x8 | %116
 x8 | x8 | x8 | x8 |] %120

